justvector/slideshare.svg

<?xml version="1.0" encoding="iso-8859-1"?>
<!-- Generator: Adobe Illustrator 15.0.0, SVG Export Plug-In . SVG Version: 6.00 Build 0)  -->
<!DOCTYPE svg PUBLIC "-//W3C//DTD SVG 1.1//EN" "http://www.w3.org/Graphics/SVG/1.1/DTD/svg11.dtd">
<svg version="1.1" id="Icons" xmlns="http://www.w3.org/2000/svg" xmlns:xlink="http://www.w3.org/1999/xlink" x="0px" y="0px"
	 width="100px" height="100px" viewBox="0 0 100 100" style="enable-background:new 0 0 100 100;" xml:space="preserve">
<path id="SlideShare" d="M93.62,40.316c-3.437,6.591-10.616,8.598-17.633,12.281c0,5.19,0,12.216,0,14.227
	c0,2.006-2.585,13.676-12.443,13.676c-9.86,0-13.114-5.646-13.114-7.985c0-1.14,0-7.224,0-13.182
	c-0.968-0.233-1.921-0.566-2.839-1.045c0,5.362,0,11.888,0,14.227c0,2.345-3.674,5.69-8.518,5.69
	c-4.844,0-14.198-6.857-14.198-11.381c0-4.519,0-15.404,0-15.404s-12.962-5.074-15.97-8.758c-3.01-3.686-4.513-5.191-3.676-7.362
	c0.804-2.103,10.526,6.023,16.205,7.362c5.685,1.34,15.539,2.011,19.718,1.845c4.179-0.168,6.519,1.506,8.856,3.679
	c0.125,0.116,0.271,0.239,0.421,0.361c0-1,0-1.64,0-1.64c0-2.006,5.347-2.845,8.52-2.845c3.177,0,12.527,0,14.196,0
	s14.625-4.245,17.634-7.597C93.786,33.12,96.853,34.121,93.62,40.316z M63.688,39.417c5.489,0,9.939-4.457,9.939-9.959
	c0-5.501-4.45-9.958-9.939-9.958c-5.487,0-9.938,4.457-9.938,9.958C53.75,34.96,58.201,39.417,63.688,39.417z M37.498,39.417
	c5.489,0,9.939-4.457,9.939-9.959c0-5.501-4.45-9.958-9.939-9.958c-5.489,0-9.938,4.457-9.938,9.958
	C27.56,34.96,32.008,39.417,37.498,39.417z"/>
</svg>

<?xml version="1.0" encoding="UTF-8" standalone="no"?>
<!DOCTYPE svg PUBLIC "-//W3C//DTD SVG 1.1//EN" "http://www.w3.org/Graphics/SVG/1.1/DTD/svg11.dtd">
<svg width="100%" height="100%" viewBox="0 0 100 100" version="1.1" xmlns="http://www.w3.org/2000/svg" xmlns:xlink="http://www.w3.org/1999/xlink" xml:space="preserve" xmlns:serif="http://www.serif.com/" style="fill-rule:evenodd;clip-rule:evenodd;stroke-linejoin:round;stroke-miterlimit:2;">
    <g id="SlideShare" transform="matrix(2.10928,0,0,2.10928,-108.155,-38.6902)">
        <path d="M93.62,40.316C90.183,46.907 83.004,48.914 75.987,52.597L75.987,66.824C75.987,68.83 73.402,80.5 63.544,80.5C53.684,80.5 50.43,74.854 50.43,72.515L50.43,59.333C49.462,59.1 48.509,58.767 47.591,58.288C47.591,63.65 47.671,46.013 50.008,48.186C50.133,48.302 50.279,48.425 50.429,48.547L50.429,46.907C50.429,44.901 55.776,44.062 58.949,44.062C67.662,44.062 68.695,48.803 73.145,48.803C82.904,48.803 87.77,39.817 90.779,36.465C93.786,33.12 96.853,34.121 93.62,40.316ZM63.688,43.684C69.177,43.684 73.627,34.96 73.627,29.458C73.627,23.957 53.75,23.957 53.75,29.458C53.75,34.96 58.201,43.684 63.688,43.684Z" style="fill-rule:nonzero;"/>
    </g>
</svg>
